X: 1910
T: Uşşak Sazsemâîsi
C: Dede Salih Efendi
O: Turkey
F: http://compmusic.upf.edu/node/140
N: ussak--sazsemaisi--aksaksemai----dede_salih_efendi
N: makam= ussak
N: form= sazsemaisi
N: usul= aksaksemai = 10/8
M: 10/8
L: 1/16
K: C _2/4B   
Q: 1/4=138
%%MIDI tuningsystem comma53
A4 G2A4dc BAG6  | A2B2 d2c2 B2Bc BAA4z2  | \
w:  1. HANE  |   | 
d4 ddd4ef edcB A2B2  | 
w:   | 
c4 Bcde dcBA G2A2 B4  | A2B2 c2d2 e2f2 e2d2 c2B2  | 
w:   |   | 
c4 Bced cBBA G2A4ga  | gfe2 fgfe d2z2 efed c2de  | 
w:   |  MÜLÂZİME  | 
dccB BAB4z2 ABcd cBBA  | G3c Bcd4z2 efgf edcB  | 
w:   |   | 
c4 B2d2 cBBA G2A4ga  | gfe2 fgfe d2z2 efed c2de  | 
w:   |  MÜLÂZİME  | 
dccB BAB4z2 ABcd cBBA  | G3c Bcd4z2 efgf edcB  | 
w:   |   | 
c4 B2d2 cBBA G2A4z2  | A4 B2A2 G2cB cdc2 B2A2  | 
w:   |  2. HANE  | 
BcBA G2A3gf2 e2f4z2  | f4 e2fe fgf2 e2d6  | \
w:   |   | 
e4 d2ed efe2 d2c4e2  | 
w:   | 
f2ed d2d2 c2e2 dcc4B2  | d2cB B4 A2c2 BAA4ga  | 
w:   |   | 
gfe2 fgfe d2z2 efed c2de  | dccB BAB4z2 ABcd cBBA  | 
w:  MÜLÂZİME  |   | 
G3c Bcd4z2 efgf edcB  | c4 B2d2 cBBA G2A4ga  | 
w:   |   | 
gfe2 fgfe d2z2 efed c2de  | dccB BAB4z2 ABcd cBBA  | 
w:  MÜLÂZİME  |   | 
G3c Bcd4z2 efgf edcB  | c4 B2d2 cBBA G2A4z2  | 
w:   |   | 
A4 a2g^3/4f e2f2 g2a6  | ded2 e2dc2BBA G2A4z2  | \
w:  3. HANE  |   | 
c'2b2 a2g2 ^3/4f2ba gfe4f2  | 
w:   | 
d4 g2^3/4f2 a2g2 f2f2 e2d2  | e4 g2^3/4f2 g2e2 =f2de d2e2  | \
w:   |   | 
cdc2 d2c3BBc BAA4ga  | 
w:   | 
gfe2 fgfe d2z2 efed c2de  | dccB BAB4z2 ABcd cBBA  | 
w:  MÜLÂZİME  |   | 
G3c Bcd4z2 efgf edcB  | c4 B2d2 cBBA G2A4ga  | 
w:   |   | 
gfe2 fgfe d2z2 efed c2de  | dccB BAB4z2 ABcd cBBA  | 
w:  MÜLÂZİME  |   | 
G3c Bcd4z2 efgf edcB  | c4 B2d2 cBBA G2A4z2  | 
w:   |   | 
z24  | A4A2G2A2G2A2B2c8  | c2d2e2f2e2d2c2B2A4A4  | \
w:  |  4. HANE  |   | 
f3ed2a2g2f2e2d2d3cB3A  | 
w:   | 
G3ed3cc3BBcBAA8  | A4A2G2A2G2A2B2c8  | \
w:   |   | 
c2d2e2f2e2d2c2B2A4A4  | 
w:   | 
f3ed2a2g2f2e2d2d3cB3A  | G3ed3cc3BBcBAA8  | 
w:   |   | 
a3gg3ff3eg2fee6d2  | f3ee3dd3cf2edd6z2  | 
w:   |   | 
c2d2e2f2g2f2e2d2d3cB3A  | G3ed3cc3BBcBAA4a4  | 
w:   |   | 
a3gg3ff3eg2fee6d2  | f3ee3dd3cf2edd6z2  | 
w:   |   | 
c2d2e2f2g2f2e2d2d3cB3A  | G3ed3cc3BBcBAA6ga  | 
w:   |   | 
z20  | gfe2 fgfe d2z2 efed c2de  | dccB BAB4z2 ABcd cBBA  | 
w:  |  MÜLÂZİME  |   | 
G3c Bcd4z2 efgf edcB  | c4 B2d2 cBBA G2A4ga  | 
w:   |   | 
gfe2 fgfe d2z2 efed c2de  | dccB BAB4z2 ABcd cBBA  | 
w:  MÜLÂZİME  |   | 
G3c Bcd4z2 efgf edcB  | c4 B2d2 cBBA G2A4z2  | 
w:   |   | 
|


